X: 5482
T: Bunglas Lass, The
R: hornpipe
M: 4/4
K: Gmajor
|:(3DEF|Gd Bd (3GAB d2|(3cde AG FA d2|gd Bd eb ag|(3fgf (3efe d2 (3def|
gd Bd ec AG|FA FE Dc BA|Gg dB cA df|g2 G2 G2:|
|:(3AB^c|d^c dB G2 AB|cB c^c d2 ef|gb gb fa fa|(3ede fe d2zB|
ce ce Bd BG|AB AG F2D2|BA Bd cB c^c|1 d2d2 G2:|2 d2 D2 G2||

